X: 5
T:New Haven Reel
M:C|
L:1/8
Q:350
D:The Heart of Cape Breton, Smithsonian Folkways recording
R:  ((HT70B25M15D0U0))
K:D
AB | A2 FE DFAc | defd ecdB | A2 FE DFAF | GBAF EFGB |
        A2 FE DFAc | defd ecdB | A<B dB A<B A<B  | A<FEF D2 :|
fg | afaf dfaf | gfge cefg | afaf dfaf | e2 (3dcB A2 |
fg | afaf dfaf | gfge cefg | afge fdec | dBAF D2 :|
